Numix/48x48/categories/applications-monodevelopment.svg

<?xml version="1.0" encoding="UTF-8" standalone="no"?>
<svg
   xmlns:dc="http://purl.org/dc/elements/1.1/"
   xmlns:cc="http://creativecommons.org/ns#"
   xmlns:rdf="http://www.w3.org/1999/02/22-rdf-syntax-ns#"
   xmlns:svg="http://www.w3.org/2000/svg"
   xmlns="http://www.w3.org/2000/svg"
   xmlns:sodipodi="http://sodipodi.sourceforge.net/DTD/sodipodi-0.dtd"
   xmlns:inkscape="http://www.inkscape.org/namespaces/inkscape"
   width="48"
   height="48"
   viewBox="0 0 38.4 38.4"
   id="svg2"
   version="1.1"
   inkscape:version="0.91 r"
   sodipodi:docname="applications-monodevelopment.svg">
  <metadata
     id="metadata16">
    <rdf:RDF>
      <cc:Work
         rdf:about="">
        <dc:format>image/svg+xml</dc:format>
        <dc:type
           rdf:resource="http://purl.org/dc/dcmitype/StillImage" />
        <dc:title></dc:title>
      </cc:Work>
    </rdf:RDF>
  </metadata>
  <defs
     id="defs14" />
  <sodipodi:namedview
     pagecolor="#ffffff"
     bordercolor="#666666"
     borderopacity="1"
     objecttolerance="10"
     gridtolerance="10"
     guidetolerance="10"
     inkscape:pageopacity="0"
     inkscape:pageshadow="2"
     inkscape:window-width="1680"
     inkscape:window-height="1026"
     id="namedview12"
     showgrid="false"
     inkscape:zoom="4.9684211"
     inkscape:cx="-32.505297"
     inkscape:cy="23.75"
     inkscape:window-x="0"
     inkscape:window-y="24"
     inkscape:window-maximized="1"
     inkscape:current-layer="svg2" />
  <path
     style="fill:none;stroke:#6997af;stroke-width:1.18752003"
     d="M 29.546354,7.0726579 C 27.68304,7.8382958 21.710284,10.330525 21.561844,10.393027 19.88994,9.0258158 17.71803,7.9672042 15.464086,7.8461084 10.003055,7.5023526 4.9834395,12.353997 4.9678143,17.732994 c -0.2421916,4.843832 1.9687832,9.324376 3.9649105,13.605698 1.6719032,-0.69923 7.7462252,-3.230524 7.9024772,-3.29693 1.636746,1.371116 3.738344,2.382852 5.929788,2.539105 5.371184,0.453132 10.367361,-4.191477 10.640804,-9.441565 0.39063,-4.914146 -1.875032,-9.461097 -3.777408,-13.855703 -0.03125,-0.070314 -0.05469,-0.1406275 -0.08203,-0.2109411 z"
     id="path4"
     inkscape:connector-curvature="0" />
  <g
     style="fill:#6997af"
     id="g6"
     transform="translate(0.19820268,0.2053547)">
    <path
       d="M 9.976562,27.996094 C 8.796875,25.140625 7.234375,22.628906 7.199219,17.964844 7.164062,13.148438 11.296875,10.03125 14.558594,10.03125 c 3.953125,0 7.433594,3.339844 7.617187,6.101562 0.164063,2.496094 -0.722656,6.125 -5.308593,6.097657 -2.1875,-0.01172 -4.460938,-1.914063 -4.472657,-4.746094 -0.01172,-3.058594 3.816407,-3.355469 4.78125,-2.578125 0.375,0.300781 0.363281,0.902344 0.03125,0.792969 -2.0625,-0.671875 -3.335937,0.652343 -3.238281,1.96875 0.125,1.785156 1.1875,2.847656 3.085938,2.9375 2.738281,0.128906 3.507812,-2.535157 3.4375,-3.617188 -0.08594,-1.3125 -1.234376,-4.019531 -4.796876,-4.511719 -1.6875,-0.234374 -3.082031,0.269532 -4.101562,1.257813 -1.019531,0.988281 -1.589844,2.011719 -1.675781,3.6875 -0.085938,1.734375 0.292969,2.753906 1.328125,5.027344 0.371094,0.8125 1.40625,2.453125 2.207031,4.09375 z"
       id="path8"
       inkscape:connector-curvature="0" />
    <path
       d="m 28.023438,10.03125 c 1.179687,2.855469 2.742187,5.371094 2.777343,10.03125 0.03516,4.816406 -4.097656,7.933594 -7.359375,7.933594 -3.953125,0 -7.433594,-3.335938 -7.617187,-6.101563 -0.164063,-2.496093 0.722656,-6.125 5.308593,-6.097656 2.1875,0.01172 4.460938,1.914063 4.472657,4.75 0.01172,3.054687 -3.816407,3.351563 -4.78125,2.574219 -0.375,-0.300782 -0.363281,-0.898438 -0.03125,-0.792969 2.0625,0.671875 3.335937,-0.652344 3.238281,-1.964844 -0.125,-1.789062 -1.1875,-2.851562 -3.085938,-2.941406 -2.738281,-0.128906 -3.507812,2.535156 -3.4375,3.617187 0.08594,1.3125 1.234376,4.019532 4.796876,4.511719 1.6875,0.234375 3.082031,-0.269531 4.101562,-1.257812 1.019531,-0.988281 1.589844,-2.011719 1.675781,-3.6875 0.08594,-1.734375 -0.292969,-2.75 -1.328125,-5.027344 -0.371094,-0.8125 -1.40625,-2.449219 -2.207031,-4.09375 z"
       id="path10"
       inkscape:connector-curvature="0" />
  </g>
</svg>

<svg width="47.5" xmlns="http://www.w3.org/2000/svg" height="47.5" viewBox="0 0 38 38" xmlns:xlink="http://www.w3.org/1999/xlink">
<path style="fill:none;stroke:#6997af;stroke-width:8" d="M 197.710526 46.263158 C 185.157895 51.421053 144.921053 68.210526 143.921053 68.631579 C 132.657895 59.421053 118.026316 52.289474 102.842105 51.473684 C 66.052632 49.157895 32.236842 81.842105 32.131579 118.078947 C 30.5 150.710526 45.394737 180.894737 58.842105 209.736842 C 70.105263 205.026316 111.026316 187.973684 112.078947 187.526316 C 123.105263 196.763158 137.263158 203.578947 152.026316 204.631579 C 188.210526 207.684211 221.868421 176.394737 223.710526 141.026316 C 226.342105 107.921053 211.078947 77.289474 198.263158 47.684211 C 198.052632 47.210526 197.894737 46.736842 197.710526 46.263158 Z " transform="scale(.14844)"/>
<g style="fill:#6997af">
<path d="M 9.976562 27.996094 C 8.796875 25.140625 7.234375 22.628906 7.199219 17.964844 C 7.164062 13.148438 11.296875 10.03125 14.558594 10.03125 C 18.511719 10.03125 21.992188 13.371094 22.175781 16.132812 C 22.339844 18.628906 21.453125 22.257812 16.867188 22.230469 C 14.679688 22.21875 12.40625 20.316406 12.394531 17.484375 C 12.382812 14.425781 16.210938 14.128906 17.175781 14.90625 C 17.550781 15.207031 17.539062 15.808594 17.207031 15.699219 C 15.144531 15.027344 13.871094 16.351562 13.96875 17.667969 C 14.09375 19.453125 15.15625 20.515625 17.054688 20.605469 C 19.792969 20.734375 20.5625 18.070312 20.492188 16.988281 C 20.40625 15.675781 19.257812 12.96875 15.695312 12.476562 C 14.007812 12.242188 12.613281 12.746094 11.59375 13.734375 C 10.574219 14.722656 10.003906 15.746094 9.917969 17.421875 C 9.832031 19.15625 10.210938 20.175781 11.246094 22.449219 C 11.617188 23.261719 12.652344 24.902344 13.453125 26.542969 Z "/>
<path d="M 28.023438 10.03125 C 29.203125 12.886719 30.765625 15.402344 30.800781 20.0625 C 30.835938 24.878906 26.703125 27.996094 23.441406 27.996094 C 19.488281 27.996094 16.007812 24.660156 15.824219 21.894531 C 15.660156 19.398438 16.546875 15.769531 21.132812 15.796875 C 23.320312 15.808594 25.59375 17.710938 25.605469 20.546875 C 25.617188 23.601562 21.789062 23.898438 20.824219 23.121094 C 20.449219 22.820312 20.460938 22.222656 20.792969 22.328125 C 22.855469 23 24.128906 21.675781 24.03125 20.363281 C 23.90625 18.574219 22.84375 17.511719 20.945312 17.421875 C 18.207031 17.292969 17.4375 19.957031 17.507812 21.039062 C 17.59375 22.351562 18.742188 25.058594 22.304688 25.550781 C 23.992188 25.785156 25.386719 25.28125 26.40625 24.292969 C 27.425781 23.304688 27.996094 22.28125 28.082031 20.605469 C 28.167969 18.871094 27.789062 17.855469 26.753906 15.578125 C 26.382812 14.765625 25.347656 13.128906 24.546875 11.484375 Z "/>
</g>
</svg>
